X: 31102
T: Paddy Fahey's
R: reel
M: 4/4
K: Gmajor
BG~G2 DG~G2|(3B^cd fa gdBG|A=F~F2 (3DEF CF|[D2G,2] eg fdcA|
BGGF ~G3A|BGFD GABc|dg~g2 dgag|1 fdcA GBdc:|2 fdcA G3B||
|:dg~g2 agfa|gfgd Bgdc|Af~f2 agfa|gbag fdcA|
dg~g2 agfa|gfgd Bgdc|Agfa gbag|1 fdcA G3B:|2 fdcA GBdc||

